X:1
T:Holy Spirit, Teacher Thou
T:Holy Spirit, Teacher Thou
T:Robert Lowry
T:Leander Whitcomb Munhall, 1891
T:Public Domain Courtesy of the Cyber Hymnal™
C:Robert Lowry
Z:Public Domain
Z:Courtesy of the Cyber Hymnal™
%%score ( 1 2 ) ( 3 4 )
L:1/8
Q:1/4=140
M:3/4
K:G
V:1 treble 
V:2 treble 
V:3 bass 
V:4 bass 
V:1
 [B,D]4 [DG]2 | [GB]4 [EA]2 | [DG]4 [DF]2 | [DG]6 | [DF]4 [EG]2 | [FA]4 [GB]2 | [Ac]4 [GB]2 | %7
w: 1.~Ho- ly|Spir- it,|teach- er|Thou,|At the|throne of|grace we|
w: 2.~Com- fort-|er in-|deed Thou|art,|Giv- ing|strength to|ev- ery|
w: 3.~Sent to|be our|guide to-|day,|Keep us|in the|nar- row|
w: 4.~Teach- er,|com- fort-|er, and|guide,|In our|hearts do|Thou a-|
 [FA]6 | [GB]4 [FA]2 | [GB]4 [FA]2 | [EG]4 [^DF]2 | E6 | [B,D]4 [DG]2 | [GB]4 [FA]2 | G6- | %15
w: bow;|Come, per-|form Thine|of- fice|now,|Teach us|ev- er-|more.|
w: heart;|Let Thy|pre- sence|ne’er de-|part,|Com- fort|ev- er-|more.|
w: way;|Grant that|we may|ne- ver|stray,|Guide us|ev- er-|more.|
w: bide;|And in|life, what-|e’er be-|tide,|Help us|ev- er-|more.|
 G4 z2 ||"^Refrain" [DA]4 [DG]2 | [DF]4 D2 | [Dc]4 [DB]2 | [DB]4 [DA]2 | [DB]4 [CA]2 | %21
w: ||||||
w: |Ho- ly|Spir- it,|teach us|ev- er,|Com- fort,|
w: ||||||
w: ||||||
 [B,G]4 [DF]2 | [CE]4 [EA]2 | [DG]4 [DF]2 | [DG]4 [B,D]2 | [CE]4 [CF]2 | [B,G]4 [EA]2 | [^DB]6 | %28
w: |||||||
w: guide and|leave us|ne- ver;|Dwell with-|in us,|we im-|plore,|
w: |||||||
w: |||||||
 [Ec]4 [EA]2 | [DG]4 [DF]2 | [DG]6- | [DG]6 |] %32
w: ||||
w: Now and|ev- er-|more.||
w: ||||
w: ||||
V:2
 x6 | x6 | x6 | x6 | x6 | x6 | x6 | x6 | x6 | x6 | x6 | (E4 C2) | x6 | x6 | G6- | G4 x2 || x6 | %17
 x4 D2 | x6 | x6 | x6 | x6 | x6 | x6 | x6 | x6 | x6 | x6 | x6 | x6 | x6 | x6 |] %32
V:3
 [G,,G,]4 [G,,B,]2 | [G,,D]4 [C,C]2 | [D,B,]4 [D,A,]2 | [G,,B,]6 | [D,A,]4 [D,A,]2 | %5
 [D,D]4 [D,D]2 | [F,D]4 [G,D]2 | [D,D]6 | [G,D]4 [D,D]2 | [G,D]4 [D,C]2 | [E,B,]4 [B,,A,]2 | %11
 [C,G,]6 | [D,G,]4 [D,B,]2 | [D,D]4 [D,C]2 | [G,,B,]6- | [G,,B,]4 z2 || [D,C]4 [D,B,]2 | %17
 [D,A,]4 [D,F,]2 | [F,A,]4 G,2 | [D,G,]4 [D,F,]2 | G,4 [D,F,]2 | [E,G,]4 [B,,G,]2 | %22
 [C,G,]4 [A,,C]2 | [D,B,]4 [D,A,]2 | [G,,B,]4 [G,,G,]2 | [C,G,]4 [A,,A,]2 | [E,G,]4 [C,E,]2 | %27
 [B,,F,]6 | [A,,A,]4 [C,A,]2 | [D,B,]4 [D,A,]2 | [G,,B,]6- | [G,,B,]6 |] %32
V:4
 x6 | x6 | x6 | x6 | x6 | x6 | x6 | x6 | x6 | x6 | x6 | x6 | x6 | x6 | x6 | x6 || x6 | x6 | %18
 x4 G,2 | x6 | G,4 x2 | x6 | x6 | x6 | x6 | x6 | x6 | x6 | x6 | x6 | x6 | x6 |] %32

